svg/emoji_u1f691.svg

<svg enable-background="new 0 0 128 128" viewBox="0 0 128 128" xmlns="http://www.w3.org/2000/svg" xmlns:xlink="http://www.w3.org/1999/xlink"><path d="m58 52.39c-3.3 0-6-2.7-6-6v-12.34c0-3.3 2.7-6 6-6s6 2.7 6 6v12.35c0 3.29-2.7 5.99-6 5.99z" fill="#E53935"/><g opacity=".3"><path d="m58 30.05c2.21 0 4 1.79 4 4v12.35c0 2.21-1.79 4-4 4s-4-1.79-4-4v-12.35c0-2.21 1.79-4 4-4m0-2c-3.3 0-6 2.7-6 6v12.35c0 3.3 2.7 6 6 6s6-2.7 6-6v-12.35c0-3.3-2.7-6-6-6z" fill="#C62828"/></g><path d="m65.01 39.99h-14.02c-2.2 0-4 1.8-4 4v0.05c0 2.2 1.8 4 4 4h14.01c2.2 0 4-1.8 4-4v-0.05c0.01-2.2-1.79-4-3.99-4z" fill="#BDBDBD"/><g opacity=".2"><path d="m65.01 41.99c1.1 0 2 0.9 2 2v0.05c0 1.1-0.9 2-2 2h-14.02c-1.1 0-2-0.9-2-2v-0.05c0-1.1 0.9-2 2-2h14.02m0-2h-14.02c-2.2 0-4 1.8-4 4v0.05c0 2.2 1.8 4 4 4h14.01c2.2 0 4-1.8 4-4v-0.05c0.01-2.2-1.79-4-3.99-4z" fill="#424242"/></g><linearGradient id="c" x1="64.118" x2="64.118" y1="47" y2="113.05" gradientUnits="userSpaceOnUse"><stop stop-color="#eee" offset=".0051299"/><stop stop-color="#EAEAEA" offset=".2817"/><stop stop-color="#ddd" offset=".5766"/><stop stop-color="#C8C8C8" offset=".8789"/><stop stop-color="#BDBDBD" offset=".9998"/></linearGradient><path d="m124.04 80.62c-1.07-5.09-5.06-23.67-6.9-32.26-0.56-2.6-2.48-4.41-4.69-4.41-6.31 0.01-18.11 0.02-19.54 0.02h-51.88c-0.72 0-3.01-0.01-4.83 2.03-5.54 6.21-14.76 24.11-16.2 25.94-0.1 0.12-7.38 2.7-10.7 4.69-1.31 0.79-2.05 2.5-2.24 4.26l-2.9 24.48c-0.75 4.83 2 6.84 6.32 6.84h107.71c3.3 0 6-0.94 6-6.84v-23.29c0-0.49-0.05-0.98-0.15-1.46z" fill="url(#c)"/><defs><path id="b" d="m124.04 80.56c-1.07-5.08-5.06-23.61-6.9-32.18-0.56-2.6-2.48-4.4-4.69-4.4-6.31 0.01-18.11 0.02-19.54 0.02h-51.88c-0.72 0-3.01-0.01-4.83 2.03-5.54 6.19-14.76 24.09-16.2 25.91-0.1 0.12-7.38 2.66-10.7 4.64-1.31 0.79-2.05 2.49-2.24 4.25l-2.9 24.42c-0.75 4.82 2 6.83 6.32 6.83h107.71c3.3 0 6-0.93 6-6.83v-23.23c0-0.49-0.05-0.98-0.15-1.46z"/></defs><clipPath id="a"><use xlink:href="#b"/></clipPath><rect x="2.62" y="84" width="124.12" height="16.12" clip-path="url(#a)" fill="#E53935"/><g clip-path="url(#a)"><path d="m14.67 95.96h-12.67c-1.1 0-2-0.9-2-2v-4.17c0-1.1 0.9-2 2-2h13.67c1.1 0 2 0.9 2 2l-1 4.17c0 1.11-0.9 2-2 2z" fill="#FFEE58"/></g><path d="m39.56 55.98h26.09c1.37 0 2.48 1.11 2.48 2.48v15.05c0 1.37-1.11 2.48-2.48 2.48h-35.42c-2.08 0-3.23-2.4-1.93-4.02l9.32-15.05c0.47-0.59 1.18-0.94 1.94-0.94z" fill="#546E7A"/><polygon points="108 61 98 61 98 51 90 51 90 61 80 61 80 69 90 69 90 79 98 79 98 69 108 69" fill="#E53935"/><g opacity=".2"><path d="m112.45 46.96c0.75 0 1.51 0.88 1.76 2.04 1.71 7.98 5.82 27.11 6.9 32.25 0.06 0.27 0.09 0.56 0.09 0.85v23.29c0 1.7-0.28 2.97-0.76 3.4-0.33 0.29-1.08 0.44-2.24 0.44h-107.71c-1.48 0-2.59-0.31-3.05-0.84-0.52-0.61-0.42-1.85-0.31-2.54 0.01-0.04 0.01-0.07 0.02-0.11l2.9-24.52c0.12-1.12 0.54-1.85 0.8-2 2.24-1.35 6.76-3.1 8.93-3.94 1.7-0.66 2.05-0.8 2.58-1.47 0.56-0.71 1.47-2.31 3.47-5.85 3.36-5.96 8.99-15.91 12.6-19.96 0.81-0.91 1.75-1.03 2.59-1.03h51.88c0.89 0 5.77 0 10.86-0.01h8.69m0-3c-6.31 0.01-18.11 0.02-19.54 0.02h-51.88-0.03c-0.74 0-3.01 0.01-4.81 2.03-5.53 6.2-14.75 24.1-16.19 25.93-0.1 0.12-7.38 2.7-10.7 4.69-1.31 0.79-2.05 2.5-2.24 4.26l-2.9 24.48c-0.75 4.83 2 6.84 6.32 6.84h107.71c3.3 0 6-0.94 6-6.84v-23.28c0-0.49-0.05-0.98-0.15-1.46-1.07-5.09-5.06-23.67-6.9-32.26-0.56-2.61-2.48-4.41-4.69-4.41z" fill="#424242"/></g><g opacity=".2"><path d="m65.65 57.98c0.26 0 0.48 0.21 0.48 0.48v15.05c0 0.26-0.21 0.48-0.48 0.48h-35.42c-0.25 0-0.37-0.15-0.43-0.27s-0.1-0.31 0.06-0.51c0.05-0.06 0.1-0.13 0.14-0.2l9.23-14.9c0.09-0.08 0.2-0.13 0.32-0.13h26.1m0-2h-26.09c-0.75 0-1.46 0.34-1.93 0.93l-9.33 15.05c-1.3 1.62-0.14 4.02 1.93 4.02h35.41c1.37 0 2.48-1.11 2.48-2.48v-15.04c0-1.37-1.1-2.48-2.47-2.48z" fill="#424242"/></g><circle cx="26.09" cy="114.02" r="10" fill="#4E342E"/><g opacity=".2"><path d="m26.09 105.02c4.96 0 9 4.04 9 9s-4.04 9-9 9-9-4.04-9-9 4.04-9 9-9m0-1c-5.52 0-10 4.48-10 10s4.48 10 10 10 10-4.48 10-10-4.48-10-10-10z" fill="#eee"/></g><circle cx="26.09" cy="114.02" r="5.65" fill="#BDBDBD"/><circle cx="106.19" cy="114.02" r="10" fill="#4E342E"/><g opacity=".2"><path d="m106.19 105.02c4.96 0 9 4.04 9 9s-4.04 9-9 9-9-4.04-9-9 4.04-9 9-9m0-1c-5.52 0-10 4.48-10 10s4.48 10 10 10 10-4.48 10-10-4.47-10-10-10z" fill="#eee"/></g><circle cx="106.19" cy="114.02" r="5.65" fill="#BDBDBD"/></svg>

<svg width="128" height="128" style="enable-background:new 0 0 128 128;" xmlns="http://www.w3.org/2000/svg" xmlns:xlink="http://www.w3.org/1999/xlink">
  <g>
    <path d="M58,52.39L58,52.39c-3.3,0-6-2.7-6-6V34.05c0-3.3,2.7-6,6-6h0c3.3,0,6,2.7,6,6v12.35 C64,49.69,61.3,52.39,58,52.39z" style="fill:#E53935;"/>
    <g style="opacity:0.3;">
      <path d="M58,30.05c2.21,0,4,1.79,4,4v12.35c0,2.21-1.79,4-4,4s-4-1.79-4-4V34.05 C54,31.84,55.79,30.05,58,30.05 M58,28.05c-3.3,0-6,2.7-6,6v12.35c0,3.3,2.7,6,6,6c3.3,0,6-2.7,6-6V34.05 C64,30.75,61.3,28.05,58,28.05L58,28.05z" style="fill:#C62828;"/>
    </g>
    <g>
      <path d="M65.01,39.99H50.99c-2.2,0-4,1.8-4,4v0.05c0,2.2,1.8,4,4,4h14.01c2.2,0,4-1.8,4-4v-0.05 C69.01,41.79,67.21,39.99,65.01,39.99z" style="fill:#BDBDBD;"/>
      <g style="opacity:0.2;">
        <path d="M65.01,41.99c1.1,0,2,0.9,2,2v0.05c0,1.1-0.9,2-2,2H50.99c-1.1,0-2-0.9-2-2v-0.05c0-1.1,0.9-2,2-2 H65.01 M65.01,39.99H50.99c-2.2,0-4,1.8-4,4v0.05c0,2.2,1.8,4,4,4h14.01c2.2,0,4-1.8,4-4v-0.05 C69.01,41.79,67.21,39.99,65.01,39.99L65.01,39.99z" style="fill:#424242;"/>
      </g>
    </g>
  </g>
  <linearGradient id="SVGID_1_" gradientUnits="userSpaceOnUse" x1="64.1185" x2="64.1185" y1="47" y2="113.0538">
    <stop offset="5.129895e-03" style="stop-color:#EEEEEE"/>
    <stop offset="0.2817" style="stop-color:#EAEAEA"/>
    <stop offset="0.5766" style="stop-color:#DDDDDD"/>
    <stop offset="0.8789" style="stop-color:#C8C8C8"/>
    <stop offset="0.9998" style="stop-color:#BDBDBD"/>
  </linearGradient>
  <path d="M124.04,80.62c-1.07-5.09-5.06-23.67-6.9-32.26c-0.56-2.6-2.48-4.41-4.69-4.41 c-6.31,0.01-18.11,0.02-19.54,0.02c0,0-42.12,0-51.88,0c-0.72,0-3.01-0.01-4.83,2.03C30.66,52.21,21.44,70.11,20,71.94 c-0.1,0.12-7.38,2.7-10.7,4.69c-1.31,0.79-2.05,2.5-2.24,4.26l-2.9,24.48c-0.75,4.83,2,6.84,6.32,6.84h107.71c3.3,0,6-0.94,6-6.84 l0-23.29C124.19,81.59,124.14,81.1,124.04,80.62z" style="fill:url(#SVGID_1_);"/>
  <g>
    <defs>
      <path id="SVGID_2_" d="M124.04,80.56c-1.07-5.08-5.06-23.61-6.9-32.18c-0.56-2.6-2.48-4.4-4.69-4.4 C106.14,43.99,94.34,44,92.91,44c0,0-42.12,0-51.88,0c-0.72,0-3.01-0.01-4.83,2.03C30.66,52.22,21.44,70.12,20,71.94 c-0.1,0.12-7.38,2.66-10.7,4.64c-1.31,0.79-2.05,2.49-2.24,4.25l-2.9,24.42c-0.75,4.82,2,6.83,6.32,6.83h107.71 c3.3,0,6-0.93,6-6.83l0-23.23C124.19,81.53,124.14,81.04,124.04,80.56z"/>
    </defs>
    <clipPath id="SVGID_3_">
      <use style="overflow:visible;" xlink:href="#SVGID_2_"/>
    </clipPath>
    <rect height="16.12" style="clip-path:url(#SVGID_3_);fill:#E53935;" width="124.12" x="2.62" y="84"/>
    <g style="clip-path:url(#SVGID_3_);">
      <path d="M14.67,95.96H2c-1.1,0-2-0.9-2-2v-4.17c0-1.1,0.9-2,2-2h13.67c1.1,0,2,0.9,2,2l-1,4.17 C16.67,95.07,15.77,95.96,14.67,95.96z" style="fill:#FFEE58;"/>
    </g>
  </g>
  <path d="M39.56,55.98h26.09c1.37,0,2.48,1.11,2.48,2.48v15.05c0,1.37-1.11,2.48-2.48,2.48H30.23 c-2.08,0-3.23-2.4-1.93-4.02l9.32-15.05C38.09,56.33,38.8,55.98,39.56,55.98z" style="fill:#546E7A;"/>
  <polygon points="108,61 98,61 98,51 90,51 90,61 80,61 80,69 90,69 90,79 98,79 98,69 108,69 " style="fill:#E53935;"/>
  <g style="opacity:0.2;">
    <path d="M112.45,46.96c0.75,0,1.51,0.88,1.76,2.04c1.71,7.98,5.82,27.11,6.9,32.25 c0.06,0.27,0.09,0.56,0.09,0.85v23.29c0,1.7-0.28,2.97-0.76,3.4c-0.33,0.29-1.08,0.44-2.24,0.44H10.49c-1.48,0-2.59-0.31-3.05-0.84 c-0.52-0.61-0.42-1.85-0.31-2.54c0.01-0.04,0.01-0.07,0.02-0.11l2.9-24.52c0.12-1.12,0.54-1.85,0.8-2c2.24-1.35,6.76-3.1,8.93-3.94 c1.7-0.66,2.05-0.8,2.58-1.47c0.56-0.71,1.47-2.31,3.47-5.85C29.19,62,34.82,52.05,38.43,48c0.81-0.91,1.75-1.03,2.59-1.03h51.88 c0.89,0,5.77,0,10.86-0.01L112.45,46.96L112.45,46.96 M112.45,43.96C112.45,43.96,112.45,43.96,112.45,43.96 c-6.31,0.01-18.11,0.02-19.54,0.02c0,0-42.12,0-51.88,0c-0.01,0-0.02,0-0.03,0c-0.74,0-3.01,0.01-4.81,2.03 C30.66,52.21,21.44,70.11,20,71.94c-0.1,0.12-7.38,2.7-10.7,4.69c-1.31,0.79-2.05,2.5-2.24,4.26l-2.9,24.48 c-0.75,4.83,2,6.84,6.32,6.84h107.71c3.3,0,6-0.94,6-6.84V82.09c0-0.49-0.05-0.98-0.15-1.46c-1.07-5.09-5.06-23.67-6.9-32.26 C116.58,45.76,114.66,43.96,112.45,43.96L112.45,43.96z" style="fill:#424242;"/>
  </g>
  <g style="opacity:0.2;">
    <path d="M65.65,57.98c0.26,0,0.48,0.21,0.48,0.48v15.05c0,0.26-0.21,0.48-0.48,0.48H30.23 c-0.25,0-0.37-0.15-0.43-0.27c-0.06-0.12-0.1-0.31,0.06-0.51c0.05-0.06,0.1-0.13,0.14-0.2l9.23-14.9c0.09-0.08,0.2-0.13,0.32-0.13 H65.65 M65.65,55.98H39.56c-0.75,0-1.46,0.34-1.93,0.93L28.3,71.96c-1.3,1.62-0.14,4.02,1.93,4.02h35.41 c1.37,0,2.48-1.11,2.48-2.48V58.46C68.12,57.09,67.02,55.98,65.65,55.98L65.65,55.98z" style="fill:#424242;"/>
  </g>
  <g>
    <g>
      <circle cx="26.09" cy="114.02" r="10" style="fill:#4E342E;"/>
      <g style="opacity:0.2;">
        <path d="M26.09,105.02c4.96,0,9,4.04,9,9s-4.04,9-9,9s-9-4.04-9-9S21.13,105.02,26.09,105.02 M26.09,104.02c-5.52,0-10,4.48-10,10c0,5.52,4.48,10,10,10s10-4.48,10-10C36.09,108.5,31.61,104.02,26.09,104.02L26.09,104.02z" style="fill:#EEEEEE;"/>
      </g>
    </g>
    <circle cx="26.09" cy="114.02" r="5.65" style="fill:#BDBDBD;"/>
  </g>
  <g>
    <g>
      <circle cx="106.19" cy="114.02" r="10" style="fill:#4E342E;"/>
      <g style="opacity:0.2;">
        <path d="M106.19,105.02c4.96,0,9,4.04,9,9s-4.04,9-9,9s-9-4.04-9-9S101.23,105.02,106.19,105.02 M106.19,104.02c-5.52,0-10,4.48-10,10c0,5.52,4.48,10,10,10c5.52,0,10-4.48,10-10C116.19,108.5,111.72,104.02,106.19,104.02 L106.19,104.02z" style="fill:#EEEEEE;"/>
      </g>
    </g>
    <circle cx="106.19" cy="114.02" r="5.65" style="fill:#BDBDBD;"/>
  </g>
</svg>
